src/icons/main-fullscreen.svg

<svg enable-background="new 0 0 13 14" viewBox="0 0 13 14" xmlns="http://www.w3.org/2000/svg"><path d="m2.2 1.4h1.7c.4 0 .7-.3.7-.7s-.3-.7-.7-.7h-3.3c-.3 0-.6.3-.6.7v3.5c0 .4.3.7.6.7s.6-.3.6-.7v-1.8l3.4 3.7c.3.1.4.2.6.2.4 0 .7-.3.7-.7 0-.2-.1-.4-.2-.5zm3 6.3c-.2 0-.3.1-.5.2l-3.4 3.7v-1.8c0-.4-.3-.7-.6-.7s-.7.3-.7.7v3.5c0 .4.3.7.6.7h3.2c.4 0 .7-.3.7-.7s-.3-.7-.7-.7h-1.6l3.4-3.7c.1-.1.2-.3.2-.5 0-.4-.2-.7-.6-.7zm7.2-7.7h-3.3c-.4 0-.7.3-.7.7s.3.7.7.7h1.7l-3.5 3.7c-.1.1-.1.3-.1.5 0 .4.3.7.7.7.2 0 .3-.1.5-.2l3.4-3.7v1.8c0 .4.3.7.7.7s.5-.3.5-.7v-3.5c0-.4-.3-.7-.6-.7zm0 9.1c-.4 0-.7.3-.7.7v1.8l-3.4-3.7c-.2-.1-.3-.2-.5-.2-.4 0-.6.3-.6.7 0 .2.1.4.2.5l3.4 3.7h-1.7c-.4 0-.7.3-.7.7s.3.7.7.7h3.2c.4 0 .6-.3.6-.7v-3.5c.1-.4-.2-.7-.5-.7z" fill="#4d5969"/></svg>

<?xml version="1.0" encoding="utf-8"?>
<!-- Generator: Adobe Illustrator 20.1.0, SVG Export Plug-In . SVG Version: 6.00 Build 0)  -->
<svg version="1.1" id="Layer_1" xmlns="http://www.w3.org/2000/svg" xmlns:xlink="http://www.w3.org/1999/xlink" x="0px" y="0px"
	 viewBox="0 0 13 14" style="enable-background:new 0 0 13 14;" xml:space="preserve">
<style type="text/css">
	.st0{fill:#4D5969;}
</style>
<title>HDL/Icon/Standard/fullscreen</title>
<desc>Created with Sketch.</desc>
<g id="Colors">
	<g id="Main-Icons" transform="translate(-121.000000, -876.000000)">
		<g id="Fullscreen" transform="translate(100.000000, 858.000000)">
			<g id="HDL_x2F_Icon_x2F_Standard_x2F_fullscreen" transform="translate(21.000000, 18.000000)">
				<path id="Shape" class="st0" d="M2.2,1.4h1.7c0.4,0,0.7-0.3,0.7-0.7S4.3,0,3.9,0H0.6C0.3,0,0,0.3,0,0.7v3.5
					c0,0.4,0.3,0.7,0.6,0.7s0.6-0.3,0.6-0.7V2.4l3.4,3.7C4.9,6.2,5,6.3,5.2,6.3c0.4,0,0.7-0.3,0.7-0.7c0-0.2-0.1-0.4-0.2-0.5
					L2.2,1.4z M5.2,7.7C5,7.7,4.9,7.8,4.7,7.9l-3.4,3.7V9.8c0-0.4-0.3-0.7-0.6-0.7S0,9.4,0,9.8v3.5C0,13.7,0.3,14,0.6,14h3.2
					c0.4,0,0.7-0.3,0.7-0.7s-0.3-0.7-0.7-0.7H2.2l3.4-3.7c0.1-0.1,0.2-0.3,0.2-0.5C5.8,8,5.6,7.7,5.2,7.7z M12.4,0H9.1
					C8.7,0,8.4,0.3,8.4,0.7s0.3,0.7,0.7,0.7h1.7L7.3,5.1C7.2,5.2,7.2,5.4,7.2,5.6c0,0.4,0.3,0.7,0.7,0.7c0.2,0,0.3-0.1,0.5-0.2
					l3.4-3.7v1.8c0,0.4,0.3,0.7,0.7,0.7S13,4.6,13,4.2V0.7C13,0.3,12.7,0,12.4,0z M12.4,9.1c-0.4,0-0.7,0.3-0.7,0.7v1.8L8.3,7.9
					C8.1,7.8,8,7.7,7.8,7.7C7.4,7.7,7.2,8,7.2,8.4c0,0.2,0.1,0.4,0.2,0.5l3.4,3.7H9.1c-0.4,0-0.7,0.3-0.7,0.7S8.7,14,9.1,14h3.2
					c0.4,0,0.6-0.3,0.6-0.7V9.8C13,9.4,12.7,9.1,12.4,9.1z"/>
			</g>
		</g>
	</g>
</g>
</svg>
